public/logos/LX.svg

<?xml version="1.0" encoding="UTF-8"?>
<svg xmlns="http://www.w3.org/2000/svg" xmlns:xlink="http://www.w3.org/1999/xlink" width="176pt" height="46.38pt" viewBox="0 0 176 46.38" version="1.1">
<defs>
<clipPath id="clip1">
  <path d="M 0 0 L 53 0 L 53 46.378906 L 0 46.378906 Z M 0 0 "/>
</clipPath>
</defs>
<g id="surface1">
<g clip-path="url(#clip1)" clip-rule="nonzero">
<path style=" stroke:none;fill-rule:evenodd;fill:rgb(80.400085%,11.776733%,14.530945%);fill-opacity:1;" d="M 52.007812 0 L 45.21875 46.378906 L 0 46.378906 L 32.035156 0 L 52.007812 0 "/>
</g>
<path style=" stroke:none;fill-rule:evenodd;fill:rgb(100%,100%,100%);fill-opacity:1;" d="M 37.246094 11.023438 C 37.246094 11.980469 37.246094 20.488281 37.246094 20.488281 C 37.246094 20.488281 45.636719 20.488281 46.71875 20.488281 C 46.71875 21.449219 46.71875 26.84375 46.71875 27.800781 C 45.636719 27.800781 37.246094 27.800781 37.246094 27.800781 C 37.246094 27.800781 37.246094 36.308594 37.246094 37.390625 C 36.289062 37.390625 30.777344 37.390625 29.816406 37.390625 C 29.816406 36.308594 29.816406 27.800781 29.816406 27.800781 C 29.816406 27.800781 21.304688 27.800781 20.347656 27.800781 C 20.347656 26.84375 20.347656 21.449219 20.347656 20.488281 C 21.304688 20.488281 29.816406 20.488281 29.816406 20.488281 C 29.816406 20.488281 29.816406 11.980469 29.816406 11.023438 C 30.777344 11.023438 36.289062 11.023438 37.246094 11.023438 "/>
<path style=" stroke:none;fill-rule:evenodd;fill:rgb(80.400085%,11.776733%,14.530945%);fill-opacity:1;" d="M 70.414062 40.917969 C 65.035156 40.917969 59.917969 38.953125 59.917969 33.179688 L 66.476562 33.179688 C 66.609375 34.753906 67.660156 36.457031 70.542969 36.457031 C 73.167969 36.457031 74.347656 35.144531 74.347656 33.703125 C 74.347656 32.523438 73.824219 31.605469 70.9375 30.816406 L 66.609375 29.507812 C 64.640625 28.984375 60.445312 27.539062 60.445312 22.554688 C 60.445312 17.832031 64.640625 15.078125 70.542969 15.078125 C 76.050781 15.078125 80.511719 17.308594 80.511719 22.292969 L 74.085938 22.292969 C 73.824219 19.539062 71.59375 19.40625 70.542969 19.40625 C 68.578125 19.40625 67.132812 20.195312 67.132812 21.636719 C 67.132812 23.34375 68.183594 23.867188 70.28125 24.523438 L 74.742188 25.703125 C 77.234375 26.492188 81.167969 28.0625 81.167969 32.785156 C 81.167969 36.984375 77.890625 40.917969 70.414062 40.917969 Z M 112.386719 40.261719 L 105.5625 40.261719 L 100.578125 22.816406 L 95.726562 40.261719 L 88.90625 40.261719 L 81.167969 15.605469 L 87.726562 15.605469 L 92.316406 32.785156 L 97.039062 15.605469 L 104.121094 15.605469 L 108.84375 32.785156 L 113.433594 15.605469 L 119.859375 15.605469 Z M 121.828125 15.605469 L 128.257812 15.605469 L 128.257812 40.261719 L 121.828125 40.261719 Z M 141.894531 40.917969 C 136.519531 40.917969 131.402344 38.953125 131.402344 33.179688 L 137.964844 33.179688 C 137.964844 34.753906 139.144531 36.457031 142.027344 36.457031 C 144.652344 36.457031 145.832031 35.144531 145.832031 33.703125 C 145.832031 32.523438 145.308594 31.605469 142.421875 30.816406 L 138.09375 29.507812 C 136.125 28.984375 131.929688 27.539062 131.929688 22.554688 C 131.929688 17.832031 136.125 15.078125 142.027344 15.078125 C 147.535156 15.078125 151.996094 17.308594 152.128906 22.292969 L 145.4375 22.292969 C 145.308594 19.539062 143.078125 19.40625 142.027344 19.40625 C 140.0625 19.40625 138.617188 20.195312 138.617188 21.636719 C 138.617188 23.34375 139.667969 23.867188 141.765625 24.523438 L 146.226562 25.703125 C 148.71875 26.492188 152.519531 28.0625 152.519531 32.785156 C 152.519531 36.984375 149.242188 40.917969 141.894531 40.917969 Z M 121.828125 7.863281 L 128.257812 7.863281 L 128.257812 13.242188 L 121.828125 13.242188 Z M 165.242188 40.917969 C 159.867188 40.917969 154.75 38.953125 154.75 33.179688 L 161.441406 33.179688 C 161.441406 34.753906 162.488281 36.457031 165.375 36.457031 C 168 36.457031 169.179688 35.144531 169.179688 33.703125 C 169.179688 32.523438 168.652344 31.605469 165.898438 30.816406 L 161.441406 29.507812 C 159.472656 28.984375 155.273438 27.539062 155.273438 22.554688 C 155.273438 17.832031 159.605469 15.078125 165.375 15.078125 C 170.886719 15.078125 175.34375 17.308594 175.476562 22.292969 L 168.917969 22.292969 C 168.785156 19.539062 166.554688 19.40625 165.375 19.40625 C 163.40625 19.40625 161.964844 20.195312 161.964844 21.636719 C 161.964844 23.34375 163.144531 23.867188 165.242188 24.523438 L 169.703125 25.703125 C 172.0625 26.492188 176 28.0625 176 32.785156 C 176 36.984375 172.722656 40.917969 165.242188 40.917969 "/>
</g>
</svg>

<svg xmlns="http://www.w3.org/2000/svg" width="176pt" height="61.84" viewBox="0 0 176 46.38"><defs><clipPath id="a"><path d="M0 0h53v46.379H0Zm0 0"/></clipPath></defs><g clip-path="url(#a)"><path d="m52.008 0-6.79 46.379H0L32.035 0z" style="stroke:none;fill-rule:evenodd;fill:#cd1e25;fill-opacity:1"/></g><path d="M37.246 11.023v9.465h9.473v7.313h-9.473v9.59h-7.43V27.8h-9.468v-7.313h9.468v-9.465z" style="stroke:none;fill-rule:evenodd;fill:#fff;fill-opacity:1"/><path d="M70.414 40.918c-5.379 0-10.496-1.965-10.496-7.738h6.559c.132 1.574 1.183 3.277 4.066 3.277 2.625 0 3.805-1.312 3.805-2.754 0-1.18-.524-2.098-3.41-2.887l-4.329-1.308c-1.968-.524-6.164-1.969-6.164-6.953 0-4.723 4.196-7.477 10.098-7.477 5.508 0 9.969 2.23 9.969 7.215h-6.426c-.262-2.754-2.492-2.887-3.543-2.887-1.965 0-3.41.79-3.41 2.23 0 1.708 1.05 2.231 3.148 2.887l4.461 1.18c2.492.79 6.426 2.36 6.426 7.082 0 4.2-3.277 8.133-10.754 8.133m41.973-.656h-6.824l-4.985-17.446-4.851 17.446h-6.82l-7.739-24.657h6.559l4.59 17.18 4.722-17.18h7.082l4.723 17.18 4.59-17.18h6.425Zm9.441-24.657h6.43v24.657h-6.43Zm20.067 25.313c-5.375 0-10.493-1.965-10.493-7.738h6.563c0 1.574 1.18 3.277 4.062 3.277 2.625 0 3.805-1.312 3.805-2.754 0-1.18-.523-2.098-3.41-2.887l-4.328-1.308c-1.969-.524-6.164-1.969-6.164-6.953 0-4.723 4.195-7.477 10.097-7.477 5.508 0 9.97 2.23 10.102 7.215h-6.691c-.13-2.754-2.36-2.887-3.41-2.887-1.965 0-3.41.79-3.41 2.23 0 1.708 1.05 2.231 3.148 2.887l4.46 1.18c2.493.79 6.294 2.36 6.294 7.082 0 4.2-3.278 8.133-10.625 8.133M121.828 7.863h6.43v5.38h-6.43Zm43.414 33.055c-5.375 0-10.492-1.965-10.492-7.738h6.691c0 1.574 1.047 3.277 3.934 3.277 2.625 0 3.805-1.312 3.805-2.754 0-1.18-.528-2.098-3.282-2.887l-4.457-1.308c-1.968-.524-6.168-1.969-6.168-6.953 0-4.723 4.332-7.477 10.102-7.477 5.512 0 9.969 2.23 10.102 7.215h-6.559c-.133-2.754-2.363-2.887-3.543-2.887-1.969 0-3.41.79-3.41 2.23 0 1.708 1.18 2.231 3.277 2.887l4.461 1.18c2.36.79 6.297 2.36 6.297 7.082 0 4.2-3.277 8.133-10.758 8.133" style="stroke:none;fill-rule:evenodd;fill:#cd1e25;fill-opacity:1"/></svg>
